priv/static/svgs/icons_new/sport-judo.svg

<svg width="32" height="32" viewBox="0 0 32 32" fill="none" xmlns="http://www.w3.org/2000/svg">
<path d="M19.3871 5.5H12.6129M19.3871 5.5L15.9941 15.5508M19.3871 5.5L20.7851 6.51613C22.7865 6.51613 23.8907 7.7846 24.5452 9.67587L25.9479 13.7281C26.3133 14.7836 26.5 15.8929 26.5 17.0098V21.811H22.0968M12.6129 5.5L16.6719 17.688M12.6129 5.5L11.2149 6.51613C9.21353 6.51613 8.10933 7.7846 7.45478 9.67587L6.0521 13.7281C5.68671 14.7836 5.5 15.8929 5.5 17.0098V21.811H9.90323M22.4355 9.90323V13.2903L21.7581 18.7097M21.7581 18.7097H18.1085M21.7581 18.7097V20.4032M9.56452 9.90323V13.2903L10.2419 18.7097M10.2419 18.7097H13.9212M10.2419 18.7097V20.4032M10.2419 20.4032L9.56452 25.8226V26.5H22.4355V25.8226L21.7581 20.4032M10.2419 20.4032H12.1866M21.7581 20.4032H19.8253M14.3594 20.4032H17.6351M17.0161 17.6935L21.0806 21.7581L20.0645 22.7742L16.0351 18.7448M17.0161 17.6935L11.9355 22.7742L10.9194 21.7581L14.9839 17.6935M17.0161 17.6935H14.9839M14.9839 17.6935L11.2581 6.68548M21.0806 26.5L20.5726 22.4355M16.8468 17.6935L20.9113 6.68548" stroke="black" stroke-linecap="round"/>
</svg>

<svg width="32" height="32" viewBox="0 0 32 32" fill="none" xmlns="http://www.w3.org/2000/svg">
  <symbol id="item" viewBox="0 0 32 32" stroke-width="1" fill="none">
    <path d="M19.387 5.5h-6.774m6.774 0-3.393 10.05M19.387 5.5l1.398 1.016c2.002 0 3.106 1.269 3.76 3.16l1.403 4.052c.365 1.056.552 2.165.552 3.282v4.801h-4.403M12.613 5.5l4.059 12.188M12.612 5.5l-1.397 1.016c-2.001 0-3.106 1.269-3.76 3.16l-1.403 4.052A10.033 10.033 0 0 0 5.5 17.01v4.801h4.403M22.436 9.903v3.387l-.678 5.42m0 0h-3.65m3.65 0v1.693M9.565 9.903v3.387l.677 5.42m0 0h3.68m-3.68 0v1.693m0 0-.677 5.42v.677h12.87v-.677l-.677-5.42m-11.516 0h1.945m9.571 0h-1.933m-5.466 0h3.276m-.619-2.71 4.065 4.065-1.017 1.016-4.029-4.03m.981-1.05-5.08 5.08-1.017-1.016 4.065-4.064m2.032 0h-2.032m0 0L11.258 6.684M21.081 26.5l-.508-4.064m-3.726-4.742L20.91 6.684" stroke="currentColor" stroke-linecap="round"/>
  </symbol>
</svg>
